X: 185
T:Donald MacLean's Farewell to Oban
M:4/4
L:1/8
F:http://blackrosetheband.googlepages.com/ABCTUNES.ABC May 2009
C:Composer: Archibald MacNeill
S:Source: The Angus Sessions Podcast
R:March
K:A
"A"A>B|:c2 B<A e2 f>e|c<e A>B c2 a2|f>e a>f e<f A>c|e>c B<A "E"B2 A>B|
"A"c2 B<A e2 f>e|c<e A>B c2 a2|f>e a>f "E"e<f A>B|1 "A"c2 A2 A2 A>B :|2 "A"c2 A2 A2 c>d||
"A"e2 c>d e2 f>g|"D"a2 f>g a3 f|"A"e>c a>f "D"e<f A>c|"A"e>c B<A "E"B2 c>d|
"A"e2 c>d e2 f>g|"D"a2 f>g a3 f|"A"e>c A>F "E"E<F A>B|"A"c2 A2 A2 c>d|
"A"e2 c>d e2 f>g|"D"a2 f>g a3 f|"A"e>c a>f "D"e<f A>c|"A"e>c B<A "E"B2 A>B|
"A"c<e c>d e2 f>g|"D"a2 f>g a3 f|"A"e>c a>f "E"e<f A>B|"A"c2 A2 A2 A>B||
|:"A"c<A c>d e>A d>e|"D"f>A e>A "A"c2 f>g|"D"a>A d>A "A"c>A c>d|e>c B<A "E"B2 A>B|
"A"c<A c>d e>A d>e|"D"f>A e>A "A"c2 f>g|"D"a2 a>f "E"e<f A>B|1 "A"c2 A2 A2 A>B:|2 "A"c2 A2 A2 c>d||
"A"e2 c>d c2 a>e|"D"f>g a>f d2 a>f|"A"e2 f>e c2 A>c|e>c B<A "E"B2 c>d|
"A"e2 a>e c2 a>e|"D"f>g a>f d2 a2|"A"f>e a>f "E"e<f A>B|"A"c2 A2 A2 c>d|
"A"e2 a>e c2 a>e|"D"f>g a>f d2 a>f|"A"e2 f>e c2 A>c|e>c B<A "E"B2 c>d|
"A"c<e "D"d<f "A"e>c B<d|"A"d>c B<A c2 a2|f>e a>f "E"e<f A>B|"A"c2 A2 A2 A>B||

